_includes/icons/color-factory.svg

<svg fill="#666" height="50" viewBox="0 0 48 48" width="50" xmlns="http://www.w3.org/2000/svg"><path d="m41.199219 5h-7.300781l-1.898438 38h11z" fill="#bf360c"/><path d="m33 23h-4v-6l-12 6v-6l-12 6v20h28z" fill="#e64a19"/><g fill="#ffc107"><path d="m9 27h4v4h-4z"/><path d="m17 27h4v4h-4z"/><path d="m25 27h4v4h-4z"/><path d="m9 35h4v4h-4z"/><path d="m17 35h4v4h-4z"/><path d="m25 35h4v4h-4z"/></g></svg>

<svg xmlns="http://www.w3.org/2000/svg" viewBox="0 0 48 48" width="50" height="50" fill="#666"><path d="M 41.199219 5 L 33.898438 5 L 32 43 L 43 43 Z" fill="#bf360c"/><path d="M 33 23 L 29 23 L 29 17 L 17 23 L 17 17 L 5 23 L 5 43 L 33 43 Z" fill="#e64a19"/><path d="M 9 27 L 13 27 L 13 31 L 9 31 Z" fill="#ffc107"/><path d="M 17 27 L 21 27 L 21 31 L 17 31 Z" fill="#ffc107"/><path d="M 25 27 L 29 27 L 29 31 L 25 31 Z" fill="#ffc107"/><path d="M 9 35 L 13 35 L 13 39 L 9 39 Z" fill="#ffc107"/><path d="M 17 35 L 21 35 L 21 39 L 17 39 Z" fill="#ffc107"/><path d="M 25 35 L 29 35 L 29 39 L 25 39 Z" fill="#ffc107"/></svg>
